X:1
T:The Jazz Me Blues
T:The Jazz Me Blues
T:Tom Delaney 1921
C:Tom Delaney
C:1921
L:1/8
M:4/4
K:Eb
V:1 treble nm="P1"
V:1
"Eb" G^FGB cBGE | G A2 B3 B,2 | G^FGA B=AB=B |"F7" c F2"Bb7" F F2 B,B, |"Eb" G^FGB cBGE | %5
w: Down in Louis- i- an- a in that|sun- ny * They|play a class of mu- sic that is|su- per fine- * And it|makes no dif- fer- ence if its *|
 G A2 B3 cd |"Eb""^Break 1 Bar" e=BcB _BGFE |"Bb7" F G2"Eb" E3 B,2 ||"Eb""^A" G^FGB cBGE | %9
w: rain or * You can|hear that jazz band mu- sic play- ing|all the * it|sounds so pe- cu- liar * 'cause the|
 G A2 B3 B,2 | G^FGA B=AB=B |"F7" c"Bb" F2 F3 B,B, |"Eb" G^FGB cBGE | G A2 B3 cd | %14
w: mu- sic's * *|How its sweet vi- bra- tion seems to|fill the * * *|Then to you the whole world seems to|be in * You want|
"Eb" e"^Break 1 Bar"=Bc_c _BGFE |"Bb7" F G2"Eb" E3 z2 ||"Bb7""^B" B B2 B- BF B2 | %17
w: noth- ing else but jazz- band mu- sic|all the *|Ev- 'ry one * that's nigh|
"Bbdim" B B2 B- BG B2 |"Bb7" d2 _d2"Bbdim" c2 B2 |"Bb7" B4 z2"^G7" =B2 |:"C7""^C" z2 c3 G- G2 | %21
w: nev- er seems * to sigh|Hear them loud- ly|cry: Oh!|Jazz man *|
 z =B cB cBcB |"F7" c3 F- F4 | c3 F- F2 F2 |"Bb7" BBcF BBcF |"Bb7" B c2 B- BBc"^Break 1 Bar"d | %26
w: Don't stop the mu- sic it's *|Jazz man *|(Jazz- man!) * You|know I want to hear it both *|day and night * and if you|
"Eb" e2 cB cB G2 | E"Eb7" G2 B"D7" B=A"Db7"B=B |"C7" c3 G- G4 |"C7" z =B cB cBcB |"F7" c3 F- F4 | %31
w: don't blow it hot then I|don't feel right * Now if it's|rag- time *|Please Sir will you play it in|jazz- time *|
 c3 F- F2 z2 |"Eb" z G GG G4 |"G7" z G GG G4 |"Cm" GFGF GFGF |"C7" B B2 B- B=AB=B | %36
w: (Jazz Time) *|Don't want it fast|Don't want it slow,|Take your time don't rush it play it|sweet and low * I've got those|
"F7" c2 c2 c2 c2 |"Bb7" c d2 c- c2 B2 |"Eb""Ab7" e8- |"Eb" e4"D7" z2"Db7""_Solos at \"C\"" =B2 | %40
w: dog- gone real- gone|jazz- band "Jazz * Me"|blues.||
 z8 |] %41
w: |

